images/LUT/diff1.CUBE
#Generated by wwww.onlinelutcreator.com 
LUT_3D_SIZE 8 
DOMAIN_MIN 0.000000 0.000000 0.000000
DOMAIN_MAX 0.903226 0.903226 0.903226
0.000000 0.000000 0.000000
0.015686 0.000000 0.000000
0.035294 0.000000 0.000000
0.070588 0.000000 0.000000
0.129412 0.000000 0.000000
0.223529 0.000000 0.000000
0.400000 0.000000 0.000000
0.678431 0.000000 0.000000
0.000000 0.015686 0.000000
0.015686 0.015686 0.000000
0.035294 0.015686 0.000000
0.070588 0.015686 0.000000
0.129412 0.015686 0.000000
0.223529 0.015686 0.000000
0.400000 0.015686 0.000000
0.678431 0.015686 0.000000
0.000000 0.035294 0.000000
0.015686 0.035294 0.000000
0.035294 0.035294 0.000000
0.070588 0.035294 0.000000
0.129412 0.035294 0.000000
0.223529 0.035294 0.000000
0.400000 0.035294 0.000000
0.678431 0.035294 0.000000
0.000000 0.070588 0.000000
0.015686 0.070588 0.000000
0.035294 0.070588 0.000000
0.070588 0.070588 0.000000
0.129412 0.070588 0.000000
0.223529 0.070588 0.000000
0.400000 0.070588 0.000000
0.678431 0.070588 0.000000
0.000000 0.129412 0.000000
0.015686 0.129412 0.000000
0.035294 0.129412 0.000000
0.070588 0.129412 0.000000
0.129412 0.129412 0.000000
0.223529 0.129412 0.000000
0.400000 0.129412 0.000000
0.678431 0.129412 0.000000
0.000000 0.223529 0.000000
0.015686 0.223529 0.000000
0.035294 0.223529 0.000000
0.070588 0.223529 0.000000
0.129412 0.223529 0.000000
0.223529 0.223529 0.000000
0.400000 0.223529 0.000000
0.678431 0.223529 0.000000
0.000000 0.400000 0.000000
0.015686 0.400000 0.000000
0.035294 0.400000 0.000000
0.070588 0.400000 0.000000
0.129412 0.400000 0.000000
0.223529 0.400000 0.000000
0.400000 0.400000 0.000000
0.678431 0.400000 0.000000
0.000000 0.678431 0.000000
0.015686 0.678431 0.000000
0.035294 0.678431 0.000000
0.070588 0.678431 0.000000
0.129412 0.678431 0.000000
0.223529 0.678431 0.000000
0.400000 0.678431 0.000000
0.678431 0.678431 0.000000
0.000000 0.000000 0.015686
0.015686 0.000000 0.015686
0.035294 0.000000 0.015686
0.070588 0.000000 0.015686
0.129412 0.000000 0.015686
0.223529 0.000000 0.015686
0.400000 0.000000 0.015686
0.678431 0.000000 0.015686
0.000000 0.015686 0.015686
0.015686 0.015686 0.015686
0.035294 0.015686 0.015686
0.070588 0.015686 0.015686
0.129412 0.015686 0.015686
0.223529 0.015686 0.015686
0.400000 0.015686 0.015686
0.678431 0.015686 0.015686
0.000000 0.035294 0.015686
0.015686 0.035294 0.015686
0.035294 0.035294 0.015686
0.070588 0.035294 0.015686
0.129412 0.035294 0.015686
0.223529 0.035294 0.015686
0.400000 0.035294 0.015686
0.678431 0.035294 0.015686
0.000000 0.070588 0.015686
0.015686 0.070588 0.015686
0.035294 0.070588 0.015686
0.070588 0.070588 0.015686
0.129412 0.070588 0.015686
0.223529 0.070588 0.015686
0.400000 0.070588 0.015686
0.678431 0.070588 0.015686
0.000000 0.129412 0.015686
0.015686 0.129412 0.015686
0.035294 0.129412 0.015686
0.070588 0.129412 0.015686
0.129412 0.129412 0.015686
0.223529 0.129412 0.015686
0.400000 0.129412 0.015686
0.678431 0.129412 0.015686
0.000000 0.223529 0.015686
0.015686 0.223529 0.015686
0.035294 0.223529 0.015686
0.070588 0.223529 0.015686
0.129412 0.223529 0.015686
0.223529 0.223529 0.015686
0.400000 0.223529 0.015686
0.678431 0.223529 0.015686
0.000000 0.400000 0.015686
0.015686 0.400000 0.015686
0.035294 0.400000 0.015686
0.070588 0.400000 0.015686
0.129412 0.400000 0.015686
0.223529 0.400000 0.015686
0.400000 0.400000 0.015686
0.678431 0.400000 0.015686
0.000000 0.678431 0.015686
0.015686 0.678431 0.015686
0.035294 0.678431 0.015686
0.070588 0.678431 0.015686
0.129412 0.678431 0.015686
0.223529 0.678431 0.015686
0.400000 0.678431 0.015686
0.678431 0.678431 0.015686
0.000000 0.000000 0.035294
0.015686 0.000000 0.035294
0.035294 0.000000 0.035294
0.070588 0.000000 0.035294
0.129412 0.000000 0.035294
0.223529 0.000000 0.035294
0.400000 0.000000 0.035294
0.678431 0.000000 0.035294
0.000000 0.015686 0.035294
0.015686 0.015686 0.035294
0.035294 0.015686 0.035294
0.070588 0.015686 0.035294
0.129412 0.015686 0.035294
0.223529 0.015686 0.035294
0.400000 0.015686 0.035294
0.678431 0.015686 0.035294
0.000000 0.035294 0.035294
0.015686 0.035294 0.035294
0.035294 0.035294 0.035294
0.070588 0.035294 0.035294
0.129412 0.035294 0.035294
0.223529 0.035294 0.035294
0.400000 0.035294 0.035294
0.678431 0.035294 0.035294
0.000000 0.070588 0.035294
0.015686 0.070588 0.035294
0.035294 0.070588 0.035294
0.070588 0.070588 0.035294
0.129412 0.070588 0.035294
0.223529 0.070588 0.035294
0.400000 0.070588 0.035294
0.678431 0.070588 0.035294
0.000000 0.129412 0.035294
0.015686 0.129412 0.035294
0.035294 0.129412 0.035294
0.070588 0.129412 0.035294
0.129412 0.129412 0.035294
0.223529 0.129412 0.035294
0.400000 0.129412 0.035294
0.678431 0.129412 0.035294
0.000000 0.223529 0.035294
0.015686 0.223529 0.035294
0.035294 0.223529 0.035294
0.070588 0.223529 0.035294
0.129412 0.223529 0.035294
0.223529 0.223529 0.035294
0.400000 0.223529 0.035294
0.678431 0.223529 0.035294
0.000000 0.400000 0.035294
0.015686 0.400000 0.035294
0.035294 0.400000 0.035294
0.070588 0.400000 0.035294
0.129412 0.400000 0.035294
0.223529 0.400000 0.035294
0.400000 0.400000 0.035294
0.678431 0.400000 0.035294
0.000000 0.678431 0.035294
0.015686 0.678431 0.035294
0.035294 0.678431 0.035294
0.070588 0.678431 0.035294
0.129412 0.678431 0.035294
0.223529 0.678431 0.035294
0.400000 0.678431 0.035294
0.678431 0.678431 0.035294
0.000000 0.000000 0.070588
0.015686 0.000000 0.070588
0.035294 0.000000 0.070588
0.070588 0.000000 0.070588
0.129412 0.000000 0.070588
0.223529 0.000000 0.070588
0.400000 0.000000 0.070588
0.678431 0.000000 0.070588
0.000000 0.015686 0.070588
0.015686 0.015686 0.070588
0.035294 0.015686 0.070588
0.070588 0.015686 0.070588
0.129412 0.015686 0.070588
0.223529 0.015686 0.070588
0.400000 0.015686 0.070588
0.678431 0.015686 0.070588
0.000000 0.035294 0.070588
0.015686 0.035294 0.070588
0.035294 0.035294 0.070588
0.070588 0.035294 0.070588
0.129412 0.035294 0.070588
0.223529 0.035294 0.070588
0.400000 0.035294 0.070588
0.678431 0.035294 0.070588
0.000000 0.070588 0.070588
0.015686 0.070588 0.070588
0.035294 0.070588 0.070588
0.070588 0.070588 0.070588
0.129412 0.070588 0.070588
0.223529 0.070588 0.070588
0.400000 0.070588 0.070588
0.678431 0.070588 0.070588
0.000000 0.129412 0.070588
0.015686 0.129412 0.070588
0.035294 0.129412 0.070588
0.070588 0.129412 0.070588
0.129412 0.129412 0.070588
0.223529 0.129412 0.070588
0.400000 0.129412 0.070588
0.678431 0.129412 0.070588
0.000000 0.223529 0.070588
0.015686 0.223529 0.070588
0.035294 0.223529 0.070588
0.070588 0.223529 0.070588
0.129412 0.223529 0.070588
0.223529 0.223529 0.070588
0.400000 0.223529 0.070588
0.678431 0.223529 0.070588
0.000000 0.400000 0.070588
0.015686 0.400000 0.070588
0.035294 0.400000 0.070588
0.070588 0.400000 0.070588
0.129412 0.400000 0.070588
0.223529 0.400000 0.070588
0.400000 0.400000 0.070588
0.678431 0.400000 0.070588
0.000000 0.678431 0.070588
0.015686 0.678431 0.070588
0.035294 0.678431 0.070588
0.070588 0.678431 0.070588
0.129412 0.678431 0.070588
0.223529 0.678431 0.070588
0.400000 0.678431 0.070588
0.678431 0.678431 0.070588
0.000000 0.000000 0.129412
0.015686 0.000000 0.129412
0.035294 0.000000 0.129412
0.070588 0.000000 0.129412
0.129412 0.000000 0.129412
0.223529 0.000000 0.129412
0.400000 0.000000 0.129412
0.678431 0.000000 0.129412
0.000000 0.015686 0.129412
0.015686 0.015686 0.129412
0.035294 0.015686 0.129412
0.070588 0.015686 0.129412
0.129412 0.015686 0.129412
0.223529 0.015686 0.129412
0.400000 0.015686 0.129412
0.678431 0.015686 0.129412
0.000000 0.035294 0.129412
0.015686 0.035294 0.129412
0.035294 0.035294 0.129412
0.070588 0.035294 0.129412
0.129412 0.035294 0.129412
0.223529 0.035294 0.129412
0.400000 0.035294 0.129412
0.678431 0.035294 0.129412
0.000000 0.070588 0.129412
0.015686 0.070588 0.129412
0.035294 0.070588 0.129412
0.070588 0.070588 0.129412
0.129412 0.070588 0.129412
0.223529 0.070588 0.129412
0.400000 0.070588 0.129412
0.678431 0.070588 0.129412
0.000000 0.129412 0.129412
0.015686 0.129412 0.129412
0.035294 0.129412 0.129412
0.070588 0.129412 0.129412
0.129412 0.129412 0.129412
0.223529 0.129412 0.129412
0.400000 0.129412 0.129412
0.678431 0.129412 0.129412
0.000000 0.223529 0.129412
0.015686 0.223529 0.129412
0.035294 0.223529 0.129412
0.070588 0.223529 0.129412
0.129412 0.223529 0.129412
0.223529 0.223529 0.129412
0.400000 0.223529 0.129412
0.678431 0.223529 0.129412
0.000000 0.400000 0.129412
0.015686 0.400000 0.129412
0.035294 0.400000 0.129412
0.070588 0.400000 0.129412
0.129412 0.400000 0.129412
0.223529 0.400000 0.129412
0.400000 0.400000 0.129412
0.678431 0.400000 0.129412
0.000000 0.678431 0.129412
0.015686 0.678431 0.129412
0.035294 0.678431 0.129412
0.070588 0.678431 0.129412
0.129412 0.678431 0.129412
0.223529 0.678431 0.129412
0.400000 0.678431 0.129412
0.678431 0.678431 0.129412
0.000000 0.000000 0.223529
0.015686 0.000000 0.223529
0.035294 0.000000 0.223529
0.070588 0.000000 0.223529
0.129412 0.000000 0.223529
0.223529 0.000000 0.223529
0.400000 0.000000 0.223529
0.678431 0.000000 0.223529
0.000000 0.015686 0.223529
0.015686 0.015686 0.223529
0.035294 0.015686 0.223529
0.070588 0.015686 0.223529
0.129412 0.015686 0.223529
0.223529 0.015686 0.223529
0.400000 0.015686 0.223529
0.678431 0.015686 0.223529
0.000000 0.035294 0.223529
0.015686 0.035294 0.223529
0.035294 0.035294 0.223529
0.070588 0.035294 0.223529
0.129412 0.035294 0.223529
0.223529 0.035294 0.223529
0.400000 0.035294 0.223529
0.678431 0.035294 0.223529
0.000000 0.070588 0.223529
0.015686 0.070588 0.223529
0.035294 0.070588 0.223529
0.070588 0.070588 0.223529
0.129412 0.070588 0.223529
0.223529 0.070588 0.223529
0.400000 0.070588 0.223529
0.678431 0.070588 0.223529
0.000000 0.129412 0.223529
0.015686 0.129412 0.223529
0.035294 0.129412 0.223529
0.070588 0.129412 0.223529
0.129412 0.129412 0.223529
0.223529 0.129412 0.223529
0.400000 0.129412 0.223529
0.678431 0.129412 0.223529
0.000000 0.223529 0.223529
0.015686 0.223529 0.223529
0.035294 0.223529 0.223529
0.070588 0.223529 0.223529
0.129412 0.223529 0.223529
0.223529 0.223529 0.223529
0.400000 0.223529 0.223529
0.678431 0.223529 0.223529
0.000000 0.400000 0.223529
0.015686 0.400000 0.223529
0.035294 0.400000 0.223529
0.070588 0.400000 0.223529
0.129412 0.400000 0.223529
0.223529 0.400000 0.223529
0.400000 0.400000 0.223529
0.678431 0.400000 0.223529
0.000000 0.678431 0.223529
0.015686 0.678431 0.223529
0.035294 0.678431 0.223529
0.070588 0.678431 0.223529
0.129412 0.678431 0.223529
0.223529 0.678431 0.223529
0.400000 0.678431 0.223529
0.678431 0.678431 0.223529
0.000000 0.000000 0.400000
0.015686 0.000000 0.400000
0.035294 0.000000 0.400000
0.070588 0.000000 0.400000
0.129412 0.000000 0.400000
0.223529 0.000000 0.400000
0.400000 0.000000 0.400000
0.678431 0.000000 0.400000
0.000000 0.015686 0.400000
0.015686 0.015686 0.400000
0.035294 0.015686 0.400000
0.070588 0.015686 0.400000
0.129412 0.015686 0.400000
0.223529 0.015686 0.400000
0.400000 0.015686 0.400000
0.678431 0.015686 0.400000
0.000000 0.035294 0.400000
0.015686 0.035294 0.400000
0.035294 0.035294 0.400000
0.070588 0.035294 0.400000
0.129412 0.035294 0.400000
0.223529 0.035294 0.400000
0.400000 0.035294 0.400000
0.678431 0.035294 0.400000
0.000000 0.070588 0.400000
0.015686 0.070588 0.400000
0.035294 0.070588 0.400000
0.070588 0.070588 0.400000
0.129412 0.070588 0.400000
0.223529 0.070588 0.400000
0.400000 0.070588 0.400000
0.678431 0.070588 0.400000
0.000000 0.129412 0.400000
0.015686 0.129412 0.400000
0.035294 0.129412 0.400000
0.070588 0.129412 0.400000
0.129412 0.129412 0.400000
0.223529 0.129412 0.400000
0.400000 0.129412 0.400000
0.678431 0.129412 0.400000
0.000000 0.223529 0.400000
0.015686 0.223529 0.400000
0.035294 0.223529 0.400000
0.070588 0.223529 0.400000
0.129412 0.223529 0.400000
0.223529 0.223529 0.400000
0.400000 0.223529 0.400000
0.678431 0.223529 0.400000
0.000000 0.400000 0.400000
0.015686 0.400000 0.400000
0.035294 0.400000 0.400000
0.070588 0.400000 0.400000
0.129412 0.400000 0.400000
0.223529 0.400000 0.400000
0.400000 0.400000 0.400000
0.678431 0.400000 0.400000
0.000000 0.678431 0.400000
0.015686 0.678431 0.400000
0.035294 0.678431 0.400000
0.070588 0.678431 0.400000
0.129412 0.678431 0.400000
0.223529 0.678431 0.400000
0.400000 0.678431 0.400000
0.678431 0.678431 0.400000
0.000000 0.000000 0.678431
0.015686 0.000000 0.678431
0.035294 0.000000 0.678431
0.070588 0.000000 0.678431
0.129412 0.000000 0.678431
0.223529 0.000000 0.678431
0.400000 0.000000 0.678431
0.678431 0.000000 0.678431
0.000000 0.015686 0.678431
0.015686 0.015686 0.678431
0.035294 0.015686 0.678431
0.070588 0.015686 0.678431
0.129412 0.015686 0.678431
0.223529 0.015686 0.678431
0.400000 0.015686 0.678431
0.678431 0.015686 0.678431
0.000000 0.035294 0.678431
0.015686 0.035294 0.678431
0.035294 0.035294 0.678431
0.070588 0.035294 0.678431
0.129412 0.035294 0.678431
0.223529 0.035294 0.678431
0.400000 0.035294 0.678431
0.678431 0.035294 0.678431
0.000000 0.070588 0.678431
0.015686 0.070588 0.678431
0.035294 0.070588 0.678431
0.070588 0.070588 0.678431
0.129412 0.070588 0.678431
0.223529 0.070588 0.678431
0.400000 0.070588 0.678431
0.678431 0.070588 0.678431
0.000000 0.129412 0.678431
0.015686 0.129412 0.678431
0.035294 0.129412 0.678431
0.070588 0.129412 0.678431
0.129412 0.129412 0.678431
0.223529 0.129412 0.678431
0.400000 0.129412 0.678431
0.678431 0.129412 0.678431
0.000000 0.223529 0.678431
0.015686 0.223529 0.678431
0.035294 0.223529 0.678431
0.070588 0.223529 0.678431
0.129412 0.223529 0.678431
0.223529 0.223529 0.678431
0.400000 0.223529 0.678431
0.678431 0.223529 0.678431
0.000000 0.400000 0.678431
0.015686 0.400000 0.678431
0.035294 0.400000 0.678431
0.070588 0.400000 0.678431
0.129412 0.400000 0.678431
0.223529 0.400000 0.678431
0.400000 0.400000 0.678431
0.678431 0.400000 0.678431
0.000000 0.678431 0.678431
0.015686 0.678431 0.678431
0.035294 0.678431 0.678431
0.070588 0.678431 0.678431
0.129412 0.678431 0.678431
0.223529 0.678431 0.678431
0.400000 0.678431 0.678431
0.678431 0.678431 0.678431
