images/LUT/diff1.CUBE
#Generated by wwww.onlinelutcreator.com 
LUT_3D_SIZE 32 
0.000000 0.000000 0.000000
0.000000 0.000000 0.000000
0.003922 0.000000 0.000000
0.007843 0.000000 0.000000
0.015686 0.000000 0.000000
0.019608 0.000000 0.000000
0.023529 0.000000 0.000000
0.031373 0.000000 0.000000
0.035294 0.000000 0.000000
0.043137 0.000000 0.000000
0.050980 0.000000 0.000000
0.062745 0.000000 0.000000
0.070588 0.000000 0.000000
0.082353 0.000000 0.000000
0.098039 0.000000 0.000000
0.113725 0.000000 0.000000
0.129412 0.000000 0.000000
0.145098 0.000000 0.000000
0.168627 0.000000 0.000000
0.192157 0.000000 0.000000
0.223529 0.000000 0.000000
0.258824 0.000000 0.000000
0.298039 0.000000 0.000000
0.345098 0.000000 0.000000
0.400000 0.000000 0.000000
0.462745 0.000000 0.000000
0.529412 0.000000 0.000000
0.600000 0.000000 0.000000
0.678431 0.000000 0.000000
0.756863 0.000000 0.000000
0.839216 0.000000 0.000000
0.925490 0.000000 0.000000
0.000000 0.000000 0.000000
0.000000 0.000000 0.000000
0.003922 0.000000 0.000000
0.007843 0.000000 0.000000
0.015686 0.000000 0.000000
0.019608 0.000000 0.000000
0.023529 0.000000 0.000000
0.031373 0.000000 0.000000
0.035294 0.000000 0.000000
0.043137 0.000000 0.000000
0.050980 0.000000 0.000000
0.062745 0.000000 0.000000
0.070588 0.000000 0.000000
0.082353 0.000000 0.000000
0.098039 0.000000 0.000000
0.113725 0.000000 0.000000
0.129412 0.000000 0.000000
0.145098 0.000000 0.000000
0.168627 0.000000 0.000000
0.192157 0.000000 0.000000
0.223529 0.000000 0.000000
0.258824 0.000000 0.000000
0.298039 0.000000 0.000000
0.345098 0.000000 0.000000
0.400000 0.000000 0.000000
0.462745 0.000000 0.000000
0.529412 0.000000 0.000000
0.600000 0.000000 0.000000
0.678431 0.000000 0.000000
0.756863 0.000000 0.000000
0.839216 0.000000 0.000000
0.925490 0.000000 0.000000
0.000000 0.003922 0.000000
0.000000 0.003922 0.000000
0.003922 0.003922 0.000000
0.007843 0.003922 0.000000
0.015686 0.003922 0.000000
0.019608 0.003922 0.000000
0.023529 0.003922 0.000000
0.031373 0.003922 0.000000
0.035294 0.003922 0.000000
0.043137 0.003922 0.000000
0.050980 0.003922 0.000000
0.062745 0.003922 0.000000
0.070588 0.003922 0.000000
0.082353 0.003922 0.000000
0.098039 0.003922 0.000000
0.113725 0.003922 0.000000
0.129412 0.003922 0.000000
0.145098 0.003922 0.000000
0.168627 0.003922 0.000000
0.192157 0.003922 0.000000
0.223529 0.003922 0.000000
0.258824 0.003922 0.000000
0.298039 0.003922 0.000000
0.345098 0.003922 0.000000
0.400000 0.003922 0.000000
0.462745 0.003922 0.000000
0.529412 0.003922 0.000000
0.600000 0.003922 0.000000
0.678431 0.003922 0.000000
0.756863 0.003922 0.000000
0.839216 0.003922 0.000000
0.925490 0.003922 0.000000
0.000000 0.007843 0.000000
0.000000 0.007843 0.000000
0.003922 0.007843 0.000000
0.007843 0.007843 0.000000
0.015686 0.007843 0.000000
0.019608 0.007843 0.000000
0.023529 0.007843 0.000000
0.031373 0.007843 0.000000
0.035294 0.007843 0.000000
0.043137 0.007843 0.000000
0.050980 0.007843 0.000000
0.062745 0.007843 0.000000
0.070588 0.007843 0.000000
0.082353 0.007843 0.000000
0.098039 0.007843 0.000000
0.113725 0.007843 0.000000
0.129412 0.007843 0.000000
0.145098 0.007843 0.000000
0.168627 0.007843 0.000000
0.192157 0.007843 0.000000
0.223529 0.007843 0.000000
0.258824 0.007843 0.000000
0.298039 0.007843 0.000000
0.345098 0.007843 0.000000
0.400000 0.007843 0.000000
0.462745 0.007843 0.000000
0.529412 0.007843 0.000000
0.600000 0.007843 0.000000
0.678431 0.007843 0.000000
0.756863 0.007843 0.000000
0.839216 0.007843 0.000000
0.925490 0.007843 0.000000
0.000000 0.015686 0.000000
0.000000 0.015686 0.000000
0.003922 0.015686 0.000000
0.007843 0.015686 0.000000
0.015686 0.015686 0.000000
0.019608 0.015686 0.000000
0.023529 0.015686 0.000000
0.031373 0.015686 0.000000
0.035294 0.015686 0.000000
0.043137 0.015686 0.000000
0.050980 0.015686 0.000000
0.062745 0.015686 0.000000
0.070588 0.015686 0.000000
0.082353 0.015686 0.000000
0.098039 0.015686 0.000000
0.113725 0.015686 0.000000
0.129412 0.015686 0.000000
0.145098 0.015686 0.000000
0.168627 0.015686 0.000000
0.192157 0.015686 0.000000
0.223529 0.015686 0.000000
0.258824 0.015686 0.000000
0.298039 0.015686 0.000000
0.345098 0.015686 0.000000
0.400000 0.015686 0.000000
0.462745 0.015686 0.000000
0.529412 0.015686 0.000000
0.600000 0.015686 0.000000
0.678431 0.015686 0.000000
0.756863 0.015686 0.000000
0.839216 0.015686 0.000000
0.925490 0.015686 0.000000
0.000000 0.019608 0.000000
0.000000 0.019608 0.000000
0.003922 0.019608 0.000000
0.007843 0.019608 0.000000
0.015686 0.019608 0.000000
0.019608 0.019608 0.000000
0.023529 0.019608 0.000000
0.031373 0.019608 0.000000
0.035294 0.019608 0.000000
0.043137 0.019608 0.000000
0.050980 0.019608 0.000000
0.062745 0.019608 0.000000
0.070588 0.019608 0.000000
0.082353 0.019608 0.000000
0.098039 0.019608 0.000000
0.113725 0.019608 0.000000
0.129412 0.019608 0.000000
0.145098 0.019608 0.000000
0.168627 0.019608 0.000000
0.192157 0.019608 0.000000
0.223529 0.019608 0.000000
0.258824 0.019608 0.000000
0.298039 0.019608 0.000000
0.345098 0.019608 0.000000
0.400000 0.019608 0.000000
0.462745 0.019608 0.000000
0.529412 0.019608 0.000000
0.600000 0.019608 0.000000
0.678431 0.019608 0.000000
0.756863 0.019608 0.000000
0.839216 0.019608 0.000000
0.925490 0.019608 0.000000
0.000000 0.023529 0.000000
0.000000 0.023529 0.000000
0.003922 0.023529 0.000000
0.007843 0.023529 0.000000
0.015686 0.023529 0.000000
0.019608 0.023529 0.000000
0.023529 0.023529 0.000000
0.031373 0.023529 0.000000
0.035294 0.023529 0.000000
0.043137 0.023529 0.000000
0.050980 0.023529 0.000000
0.062745 0.023529 0.000000
0.070588 0.023529 0.000000
0.082353 0.023529 0.000000
0.098039 0.023529 0.000000
0.113725 0.023529 0.000000
0.129412 0.023529 0.000000
0.145098 0.023529 0.000000
0.168627 0.023529 0.000000
0.192157 0.023529 0.000000
0.223529 0.023529 0.000000
0.258824 0.023529 0.000000
0.298039 0.023529 0.000000
0.345098 0.023529 0.000000
0.400000 0.023529 0.000000
0.462745 0.023529 0.000000
0.529412 0.023529 0.000000
0.600000 0.023529 0.000000
0.678431 0.023529 0.000000
0.756863 0.023529 0.000000
0.839216 0.023529 0.000000
0.925490 0.023529 0.000000
0.000000 0.031373 0.000000
0.000000 0.031373 0.000000
0.003922 0.031373 0.000000
0.007843 0.031373 0.000000
0.015686 0.031373 0.000000
0.019608 0.031373 0.000000
0.023529 0.031373 0.000000
0.031373 0.031373 0.000000
0.035294 0.031373 0.000000
0.043137 0.031373 0.000000
0.050980 0.031373 0.000000
0.062745 0.031373 0.000000
0.070588 0.031373 0.000000
0.082353 0.031373 0.000000
0.098039 0.031373 0.000000
0.113725 0.031373 0.000000
0.129412 0.031373 0.000000
0.145098 0.031373 0.000000
0.168627 0.031373 0.000000
0.192157 0.031373 0.000000
0.223529 0.031373 0.000000
0.258824 0.031373 0.000000
0.298039 0.031373 0.000000
0.345098 0.031373 0.000000
0.400000 0.031373 0.000000
0.462745 0.031373 0.000000
0.529412 0.031373 0.000000
0.600000 0.031373 0.000000
0.678431 0.031373 0.000000
0.756863 0.031373 0.000000
0.839216 0.031373 0.000000
0.925490 0.031373 0.000000
0.000000 0.035294 0.000000
0.000000 0.035294 0.000000
0.003922 0.035294 0.000000
0.007843 0.035294 0.000000
0.015686 0.035294 0.000000
0.019608 0.035294 0.000000
0.023529 0.035294 0.000000
0.031373 0.035294 0.000000
0.035294 0.035294 0.000000
0.043137 0.035294 0.000000
0.050980 0.035294 0.000000
0.062745 0.035294 0.000000
0.070588 0.035294 0.000000
0.082353 0.035294 0.000000
0.098039 0.035294 0.000000
0.113725 0.035294 0.000000
0.129412 0.035294 0.000000
0.145098 0.035294 0.000000
0.168627 0.035294 0.000000
0.192157 0.035294 0.000000
0.223529 0.035294 0.000000
0.258824 0.035294 0.000000
0.298039 0.035294 0.000000
0.345098 0.035294 0.000000
0.400000 0.035294 0.000000
0.462745 0.035294 0.000000
0.529412 0.035294 0.000000
0.600000 0.035294 0.000000
0.678431 0.035294 0.000000
0.756863 0.035294 0.000000
0.839216 0.035294 0.000000
0.925490 0.035294 0.000000
0.000000 0.043137 0.000000
0.000000 0.043137 0.000000
0.003922 0.043137 0.000000
0.007843 0.043137 0.000000
0.015686 0.043137 0.000000
0.019608 0.043137 0.000000
0.023529 0.043137 0.000000
0.031373 0.043137 0.000000
0.035294 0.043137 0.000000
0.043137 0.043137 0.000000
0.050980 0.043137 0.000000
0.062745 0.043137 0.000000
0.070588 0.043137 0.000000
0.082353 0.043137 0.000000
0.098039 0.043137 0.000000
0.113725 0.043137 0.000000
0.129412 0.043137 0.000000
0.145098 0.043137 0.000000
0.168627 0.043137 0.000000
0.192157 0.043137 0.000000
0.223529 0.043137 0.000000
0.258824 0.043137 0.000000
0.298039 0.043137 0.000000
0.345098 0.043137 0.000000
0.400000 0.043137 0.000000
0.462745 0.043137 0.000000
0.529412 0.043137 0.000000
0.600000 0.043137 0.000000
0.678431 0.043137 0.000000
0.756863 0.043137 0.000000
0.839216 0.043137 0.000000
0.925490 0.043137 0.000000
0.000000 0.050980 0.000000
0.000000 0.050980 0.000000
0.003922 0.050980 0.000000
0.007843 0.050980 0.000000
0.015686 0.050980 0.000000
0.019608 0.050980 0.000000
0.023529 0.050980 0.000000
0.031373 0.050980 0.000000
0.035294 0.050980 0.000000
0.043137 0.050980 0.000000
0.050980 0.050980 0.000000
0.062745 0.050980 0.000000
0.070588 0.050980 0.000000
0.082353 0.050980 0.000000
0.098039 0.050980 0.000000
0.113725 0.050980 0.000000
0.129412 0.050980 0.000000
0.145098 0.050980 0.000000
0.168627 0.050980 0.000000
0.192157 0.050980 0.000000
0.223529 0.050980 0.000000
0.258824 0.050980 0.000000
0.298039 0.050980 0.000000
0.345098 0.050980 0.000000
0.400000 0.050980 0.000000
0.462745 0.050980 0.000000
0.529412 0.050980 0.000000
0.600000 0.050980 0.000000
0.678431 0.050980 0.000000
0.756863 0.050980 0.000000
0.839216 0.050980 0.000000
0.925490 0.050980 0.000000
0.000000 0.062745 0.000000
0.000000 0.062745 0.000000
0.003922 0.062745 0.000000
0.007843 0.062745 0.000000
0.015686 0.062745 0.000000
0.019608 0.062745 0.000000
0.023529 0.062745 0.000000
0.031373 0.062745 0.000000
0.035294 0.062745 0.000000
0.043137 0.062745 0.000000
0.050980 0.062745 0.000000
0.062745 0.062745 0.000000
0.070588 0.062745 0.000000
0.082353 0.062745 0.000000
0.098039 0.062745 0.000000
0.113725 0.062745 0.000000
0.129412 0.062745 0.000000
0.145098 0.062745 0.000000
0.168627 0.062745 0.000000
0.192157 0.062745 0.000000
0.223529 0.062745 0.000000
0.258824 0.062745 0.000000
0.298039 0.062745 0.000000
0.345098 0.062745 0.000000
0.400000 0.062745 0.000000
0.462745 0.062745 0.000000
0.529412 0.062745 0.000000
0.600000 0.062745 0.000000
0.678431 0.062745 0.000000
0.756863 0.062745 0.000000
0.839216 0.062745 0.000000
0.925490 0.062745 0.000000
0.000000 0.070588 0.000000
0.000000 0.070588 0.000000
0.003922 0.070588 0.000000
0.007843 0.070588 0.000000
0.015686 0.070588 0.000000
0.019608 0.070588 0.000000
0.023529 0.070588 0.000000
0.031373 0.070588 0.000000
0.035294 0.070588 0.000000
0.043137 0.070588 0.000000
0.050980 0.070588 0.000000
0.062745 0.070588 0.000000
0.070588 0.070588 0.000000
0.082353 0.070588 0.000000
0.098039 0.070588 0.000000
0.113725 0.070588 0.000000
0.129412 0.070588 0.000000
0.145098 0.070588 0.000000
0.168627 0.070588 0.000000
0.192157 0.070588 0.000000
0.223529 0.070588 0.000000
0.258824 0.070588 0.000000
0.298039 0.070588 0.000000
0.345098 0.070588 0.000000
0.400000 0.070588 0.000000
0.462745 0.070588 0.000000
0.529412 0.070588 0.000000
0.600000 0.070588 0.000000
0.678431 0.070588 0.000000
0.756863 0.070588 0.000000
0.839216 0.070588 0.000000
0.925490 0.070588 0.000000
0.000000 0.082353 0.000000
0.000000 0.082353 0.000000
0.003922 0.082353 0.000000
0.007843 0.082353 0.000000
0.015686 0.082353 0.000000
0.019608 0.082353 0.000000
0.023529 0.082353 0.000000
0.031373 0.082353 0.000000
0.035294 0.082353 0.000000
0.043137 0.082353 0.000000
0.050980 0.082353 0.000000
0.062745 0.082353 0.000000
0.070588 0.082353 0.000000
0.082353 0.082353 0.000000
0.098039 0.082353 0.000000
0.113725 0.082353 0.000000
0.129412 0.082353 0.000000
0.145098 0.082353 0.000000
0.168627 0.082353 0.000000
0.192157 0.082353 0.000000
0.223529 0.082353 0.000000
0.258824 0.082353 0.000000
0.298039 0.082353 0.000000
0.345098 0.082353 0.000000
0.400000 0.082353 0.000000
0.462745 0.082353 0.000000
0.529412 0.082353 0.000000
0.600000 0.082353 0.000000
0.678431 0.082353 0.000000
0.756863 0.082353 0.000000
0.839216 0.082353 0.000000
0.925490 0.082353 0.000000
0.000000 0.098039 0.000000
0.000000 0.098039 0.000000
0.003922 0.098039 0.000000
0.007843 0.098039 0.000000
0.015686 0.098039 0.000000
0.019608 0.098039 0.000000
0.023529 0.098039 0.000000
0.031373 0.098039 0.000000
0.035294 0.098039 0.000000
0.043137 0.098039 0.000000
0.050980 0.098039 0.000000
0.062745 0.098039 0.000000
0.070588 0.098039 0.000000
0.082353 0.098039 0.000000
0.098039 0.098039 0.000000
0.113725 0.098039 0.000000
0.129412 0.098039 0.000000
0.145098 0.098039 0.000000
0.168627 0.098039 0.000000
0.192157 0.098039 0.000000
0.223529 0.098039 0.000000
0.258824 0.098039 0.000000
0.298039 0.098039 0.000000
0.345098 0.098039 0.000000
0.400000 0.098039 0.000000
0.462745 0.098039 0.000000
0.529412 0.098039 0.000000
0.600000 0.098039 0.000000
0.678431 0.098039 0.000000
0.756863 0.098039 0.000000
0.839216 0.098039 0.000000
0.925490 0.098039 0.000000
0.000000 0.113725 0.000000
0.000000 0.113725 0.000000
0.003922 0.113725 0.000000
0.007843 0.113725 0.000000
0.015686 0.113725 0.000000
0.019608 0.113725 0.000000
0.023529 0.113725 0.000000
0.031373 0.113725 0.000000
0.035294 0.113725 0.000000
0.043137 0.113725 0.000000
0.050980 0.113725 0.000000
0.062745 0.113725 0.000000
0.070588 0.113725 0.000000
0.082353 0.113725 0.000000
0.098039 0.113725 0.000000
0.113725 0.113725 0.000000
0.129412 0.113725 0.000000
0.145098 0.113725 0.000000
0.168627 0.113725 0.000000
0.192157 0.113725 0.000000
0.223529 0.113725 0.000000
0.258824 0.113725 0.000000
0.298039 0.113725 0.000000
0.345098 0.113725 0.000000
0.400000 0.113725 0.000000
0.462745 0.113725 0.000000
0.529412 0.113725 0.000000
0.600000 0.113725 0.000000
0.678431 0.113725 0.000000
0.756863 0.113725 0.000000
0.839216 0.113725 0.000000
0.925490 0.113725 0.000000
0.000000 0.129412 0.000000
0.000000 0.129412 0.000000
0.003922 0.129412 0.000000
0.007843 0.129412 0.000000
0.015686 0.129412 0.000000
0.019608 0.129412 0.000000
0.023529 0.129412 0.000000
0.031373 0.129412 0.000000
0.035294 0.129412 0.000000
0.043137 0.129412 0.000000
0.050980 0.129412 0.000000
0.062745 0.129412 0.000000
0.070588 0.129412 0.000000
0.082353 0.129412 0.000000
0.098039 0.129412 0.000000
0.113725 0.129412 0.000000
0.129412 0.129412 0.000000
0.145098 0.129412 0.000000
0.168627 0.129412 0.000000
0.192157 0.129412 0.000000
0.223529 0.129412 0.000000
0.258824 0.129412 0.000000
0.298039 0.129412 0.000000
0.345098 0.129412 0.000000
0.400000 0.129412 0.000000
0.462745 0.129412 0.000000
0.529412 0.129412 0.000000
0.600000 0.129412 0.000000
0.678431 0.129412 0.000000
0.756863 0.129412 0.000000
0.839216 0.129412 0.000000
0.925490 0.129412 0.000000
0.000000 0.145098 0.000000
0.000000 0.145098 0.000000
0.003922 0.145098 0.000000
0.007843 0.145098 0.000000
0.015686 0.145098 0.000000
0.019608 0.145098 0.000000
0.023529 0.145098 0.000000
0.031373 0.145098 0.000000
0.035294 0.145098 0.000000
0.043137 0.145098 0.000000
0.050980 0.145098 0.000000
0.062745 0.145098 0.000000
0.070588 0.145098 0.000000
0.082353 0.145098 0.000000
0.098039 0.145098 0.000000
0.113725 0.145098 0.000000
0.129412 0.145098 0.000000
0.145098 0.145098 0.000000
0.168627 0.145098 0.000000
0.192157 0.145098 0.000000
0.223529 0.145098 0.000000
0.258824 0.145098 0.000000
0.298039 0.145098 0.000000
0.345098 0.145098 0.000000
0.400000 0.145098 0.000000
0.462745 0.145098 0.000000
0.529412 0.145098 0.000000
0.600000 0.145098 0.000000
0.678431 0.145098 0.000000
0.756863 0.145098 0.000000
0.839216 0.145098 0.000000
0.925490 0.145098 0.000000
0.000000 0.168627 0.000000
0.000000 0.168627 0.000000
0.003922 0.168627 0.000000
0.007843 0.168627 0.000000
0.015686 0.168627 0.000000
0.019608 0.168627 0.000000
0.023529 0.168627 0.000000
0.031373 0.168627 0.000000
0.035294 0.168627 0.000000
0.043137 0.168627 0.000000
0.050980 0.168627 0.000000
0.062745 0.168627 0.000000
0.070588 0.168627 0.000000
0.082353 0.168627 0.000000
0.098039 0.168627 0.000000
0.113725 0.168627 0.000000
0.129412 0.168627 0.000000
0.145098 0.168627 0.000000
0.168627 0.168627 0.000000
0.192157 0.168627 0.000000
0.223529 0.168627 0.000000
0.258824 0.168627 0.000000
0.298039 0.168627 0.000000
0.345098 0.168627 0.000000
0.400000 0.168627 0.000000
0.462745 0.168627 0.000000
0.529412 0.168627 0.000000
0.600000 0.168627 0.000000
0.678431 0.168627 0.000000
0.756863 0.168627 0.000000
0.839216 0.168627 0.000000
0.925490 0.168627 0.000000
0.000000 0.192157 0.000000
0.000000 0.192157 0.000000
0.003922 0.192157 0.000000
0.007843 0.192157 0.000000
0.015686 0.192157 0.000000
0.019608 0.192157 0.000000
0.023529 0.192157 0.000000
0.031373 0.192157 0.000000
0.035294 0.192157 0.000000
0.043137 0.192157 0.000000
0.050980 0.192157 0.000000
0.062745 0.192157 0.000000
0.070588 0.192157 0.000000
0.082353 0.192157 0.000000
0.098039 0.192157 0.000000
0.113725 0.192157 0.000000
0.129412 0.192157 0.000000
0.145098 0.192157 0.000000
0.168627 0.192157 0.000000
0.192157 0.192157 0.000000
0.223529 0.192157 0.000000
0.258824 0.192157 0.000000
0.298039 0.192157 0.000000
0.345098 0.192157 0.000000
0.400000 0.192157 0.000000
0.462745 0.192157 0.000000
0.529412 0.192157 0.000000
0.600000 0.192157 0.000000
0.678431 0.192157 0.000000
0.756863 0.192157 0.000000
0.839216 0.192157 0.000000
0.925490 0.192157 0.000000
0.000000 0.223529 0.000000
0.000000 0.223529 0.000000
0.003922 0.223529 0.000000
0.007843 0.223529 0.000000
0.015686 0.223529 0.000000
0.019608 0.223529 0.000000
0.023529 0.223529 0.000000
0.031373 0.223529 0.000000
0.035294 0.223529 0.000000
0.043137 0.223529 0.000000
0.050980 0.223529 0.000000
0.062745 0.223529 0.000000
0.070588 0.223529 0.000000
0.082353 0.223529 0.000000
0.098039 0.223529 0.000000
0.113725 0.223529 0.000000
0.129412 0.223529 0.000000
0.145098 0.223529 0.000000
0.168627 0.223529 0.000000
0.192157 0.223529 0.000000
0.223529 0.223529 0.000000
0.258824 0.223529 0.000000
0.298039 0.223529 0.000000
0.345098 0.223529 0.000000
0.400000 0.223529 0.000000
0.462745 0.223529 0.000000
0.529412 0.223529 0.000000
0.600000 0.223529 0.000000
0.678431 0.223529 0.000000
0.756863 0.223529 0.000000
0.839216 0.223529 0.000000
0.925490 0.223529 0.000000
0.000000 0.258824 0.000000
0.000000 0.258824 0.000000
0.003922 0.258824 0.000000
0.007843 0.258824 0.000000
0.015686 0.258824 0.000000
0.019608 0.258824 0.000000
0.023529 0.258824 0.000000
0.031373 0.258824 0.000000
0.035294 0.258824 0.000000
0.043137 0.258824 0.000000
0.050980 0.258824 0.000000
0.062745 0.258824 0.000000
0.070588 0.258824 0.000000
0.082353 0.258824 0.000000
0.098039 0.258824 0.000000
0.113725 0.258824 0.000000
0.129412 0.258824 0.000000
0.145098 0.258824 0.000000
0.168627 0.258824 0.000000
0.192157 0.258824 0.000000
0.223529 0.258824 0.000000
0.258824 0.258824 0.000000
0.298039 0.258824 0.000000
0.345098 0.258824 0.000000
0.400000 0.258824 0.000000
0.462745 0.258824 0.000000
0.529412 0.258824 0.000000
0.600000 0.258824 0.000000
0.678431 0.258824 0.000000
0.756863 0.258824 0.000000
0.839216 0.258824 0.000000
0.925490 0.258824 0.000000
0.000000 0.298039 0.000000
0.000000 0.298039 0.000000
0.003922 0.298039 0.000000
0.007843 0.298039 0.000000
0.015686 0.298039 0.000000
0.019608 0.298039 0.000000
0.023529 0.298039 0.000000
0.031373 0.298039 0.000000
0.035294 0.298039 0.000000
0.043137 0.298039 0.000000
0.050980 0.298039 0.000000
0.062745 0.298039 0.000000
0.070588 0.298039 0.000000
0.082353 0.298039 0.000000
0.098039 0.298039 0.000000
0.113725 0.298039 0.000000
0.129412 0.298039 0.000000
0.145098 0.298039 0.000000
0.168627 0.298039 0.000000
0.192157 0.298039 0.000000
0.223529 0.298039 0.000000
0.258824 0.298039 0.000000
0.298039 0.298039 0.000000
0.345098 0.298039 0.000000
0.400000 0.298039 0.000000
0.462745 0.298039 0.000000
0.529412 0.298039 0.000000
0.600000 0.298039 0.000000
0.678431 0.298039 0.000000
0.756863 0.298039 0.000000
0.839216 0.298039 0.000000
0.925490 0.298039 0.000000
0.000000 0.345098 0.000000
0.000000 0.345098 0.000000
0.003922 0.345098 0.000000
0.007843 0.345098 0.000000
0.015686 0.345098 0.000000
0.019608 0.345098 0.000000
0.023529 0.345098 0.000000
0.031373 0.345098 0.000000
0.035294 0.345098 0.000000
0.043137 0.345098 0.000000
0.050980 0.345098 0.000000
0.062745 0.345098 0.000000
0.070588 0.345098 0.000000
0.082353 0.345098 0.000000
0.098039 0.345098 0.000000
0.113725 0.345098 0.000000
0.129412 0.345098 0.000000
0.145098 0.345098 0.000000
0.168627 0.345098 0.000000
0.192157 0.345098 0.000000
0.223529 0.345098 0.000000
0.258824 0.345098 0.000000
0.298039 0.345098 0.000000
0.345098 0.345098 0.000000
0.400000 0.345098 0.000000
0.462745 0.345098 0.000000
0.529412 0.345098 0.000000
0.600000 0.345098 0.000000
0.678431 0.345098 0.000000
0.756863 0.345098 0.000000
0.839216 0.345098 0.000000
0.925490 0.345098 0.000000
0.000000 0.400000 0.000000
0.000000 0.400000 0.000000
0.003922 0.400000 0.000000
0.007843 0.400000 0.000000
0.015686 0.400000 0.000000
0.019608 0.400000 0.000000
0.023529 0.400000 0.000000
0.031373 0.400000 0.000000
0.035294 0.400000 0.000000
0.043137 0.400000 0.000000
0.050980 0.400000 0.000000
0.062745 0.400000 0.000000
0.070588 0.400000 0.000000
0.082353 0.400000 0.000000
0.098039 0.400000 0.000000
0.113725 0.400000 0.000000
0.129412 0.400000 0.000000
0.145098 0.400000 0.000000
0.168627 0.400000 0.000000
0.192157 0.400000 0.000000
0.223529 0.400000 0.000000
0.258824 0.400000 0.000000
0.298039 0.400000 0.000000
0.345098 0.400000 0.000000
0.400000 0.400000 0.000000
0.462745 0.400000 0.000000
0.529412 0.400000 0.000000
0.600000 0.400000 0.000000
0.678431 0.400000 0.000000
0.756863 0.400000 0.000000
0.839216 0.400000 0.000000
0.925490 0.400000 0.000000
0.000000 0.462745 0.000000
0.000000 0.462745 0.000000
0.003922 0.462745 0.000000
0.007843 0.462745 0.000000
0.015686 0.462745 0.000000
0.019608 0.462745 0.000000
0.023529 0.462745 0.000000
0.031373 0.462745 0.000000
0.035294 0.462745 0.000000
0.043137 0.462745 0.000000
0.050980 0.462745 0.000000
0.062745 0.462745 0.000000
0.070588 0.462745 0.000000
0.082353 0.462745 0.000000
0.098039 0.462745 0.000000
0.113725 0.462745 0.000000
0.129412 0.462745 0.000000
0.145098 0.462745 0.000000
0.168627 0.462745 0.000000
0.192157 0.462745 0.000000
0.223529 0.462745 0.000000
0.258824 0.462745 0.000000
0.298039 0.462745 0.000000
0.345098 0.462745 0.000000
0.400000 0.462745 0.000000
0.462745 0.462745 0.000000
0.529412 0.462745 0.000000
0.600000 0.462745 0.000000
0.678431 0.462745 0.000000
0.756863 0.462745 0.000000
0.839216 0.462745 0.000000
0.925490 0.462745 0.000000
0.000000 0.529412 0.000000
0.000000 0.529412 0.000000
0.003922 0.529412 0.000000
0.007843 0.529412 0.000000
0.015686 0.529412 0.000000
0.019608 0.529412 0.000000
0.023529 0.529412 0.000000
0.031373 0.529412 0.000000
0.035294 0.529412 0.000000
0.043137 0.529412 0.000000
0.050980 0.529412 0.000000
0.062745 0.529412 0.000000
0.070588 0.529412 0.000000
0.082353 0.529412 0.000000
0.098039 0.529412 0.000000
0.113725 0.529412 0.000000
0.129412 0.529412 0.000000
0.145098 0.529412 0.000000
0.168627 0.529412 0.000000
0.192157 0.529412 0.000000
0.223529 0.529412 0.000000
0.258824 0.529412 0.000000
0.298039 0.529412 0.000000
0.345098 0.529412 0.000000
0.400000 0.529412 0.000000
0.462745 0.529412 0.000000
0.529412 0.529412 0.000000
0.600000 0.529412 0.000000
0.678431 0.529412 0.000000
0.756863 0.529412 0.000000
0.839216 0.529412 0.000000
0.925490 0.529412 0.000000
0.000000 0.600000 0.000000
0.000000 0.600000 0.000000
0.003922 0.600000 0.000000
0.007843 0.600000 0.000000
0.015686 0.600000 0.000000
0.019608 0.600000 0.000000
0.023529 0.600000 0.000000
0.031373 0.600000 0.000000
0.035294 0.600000 0.000000
0.043137 0.600000 0.000000
0.050980 0.600000 0.000000
0.062745 0.600000 0.000000
0.070588 0.600000 0.000000
0.082353 0.600000 0.000000
0.098039 0.600000 0.000000
0.113725 0.600000 0.000000
0.129412 0.600000 0.000000
0.145098 0.600000 0.000000
0.168627 0.600000 0.000000
0.192157 0.600000 0.000000
0.223529 0.600000 0.000000
0.258824 0.600000 0.000000
