images/LUT/diff1.CUBE
#Generated by wwww.onlinelutcreator.com 
LUT_3D_SIZE 5 
DOMAIN_MIN 0.000000 0.000000 0.000000
DOMAIN_MAX 0.903226 0.903226 0.903226
0.000000 0.000000 0.000000
0.031373 0.000000 0.000000
0.098039 0.000000 0.000000
0.258824 0.000000 0.000000
0.678431 0.000000 0.000000
0.000000 0.031373 0.000000
0.031373 0.031373 0.000000
0.098039 0.031373 0.000000
0.258824 0.031373 0.000000
0.678431 0.031373 0.000000
0.000000 0.098039 0.000000
0.031373 0.098039 0.000000
0.098039 0.098039 0.000000
0.258824 0.098039 0.000000
0.678431 0.098039 0.000000
0.000000 0.258824 0.000000
0.031373 0.258824 0.000000
0.098039 0.258824 0.000000
0.258824 0.258824 0.000000
0.678431 0.258824 0.000000
0.000000 0.678431 0.000000
0.031373 0.678431 0.000000
0.098039 0.678431 0.000000
0.258824 0.678431 0.000000
0.678431 0.678431 0.000000
0.000000 0.000000 0.031373
0.031373 0.000000 0.031373
0.098039 0.000000 0.031373
0.258824 0.000000 0.031373
0.678431 0.000000 0.031373
0.000000 0.031373 0.031373
0.031373 0.031373 0.031373
0.098039 0.031373 0.031373
0.258824 0.031373 0.031373
0.678431 0.031373 0.031373
0.000000 0.098039 0.031373
0.031373 0.098039 0.031373
0.098039 0.098039 0.031373
0.258824 0.098039 0.031373
0.678431 0.098039 0.031373
0.000000 0.258824 0.031373
0.031373 0.258824 0.031373
0.098039 0.258824 0.031373
0.258824 0.258824 0.031373
0.678431 0.258824 0.031373
0.000000 0.678431 0.031373
0.031373 0.678431 0.031373
0.098039 0.678431 0.031373
0.258824 0.678431 0.031373
0.678431 0.678431 0.031373
0.000000 0.000000 0.098039
0.031373 0.000000 0.098039
0.098039 0.000000 0.098039
0.258824 0.000000 0.098039
0.678431 0.000000 0.098039
0.000000 0.031373 0.098039
0.031373 0.031373 0.098039
0.098039 0.031373 0.098039
0.258824 0.031373 0.098039
0.678431 0.031373 0.098039
0.000000 0.098039 0.098039
0.031373 0.098039 0.098039
0.098039 0.098039 0.098039
0.258824 0.098039 0.098039
0.678431 0.098039 0.098039
0.000000 0.258824 0.098039
0.031373 0.258824 0.098039
0.098039 0.258824 0.098039
0.258824 0.258824 0.098039
0.678431 0.258824 0.098039
0.000000 0.678431 0.098039
0.031373 0.678431 0.098039
0.098039 0.678431 0.098039
0.258824 0.678431 0.098039
0.678431 0.678431 0.098039
0.000000 0.000000 0.258824
0.031373 0.000000 0.258824
0.098039 0.000000 0.258824
0.258824 0.000000 0.258824
0.678431 0.000000 0.258824
0.000000 0.031373 0.258824
0.031373 0.031373 0.258824
0.098039 0.031373 0.258824
0.258824 0.031373 0.258824
0.678431 0.031373 0.258824
0.000000 0.098039 0.258824
0.031373 0.098039 0.258824
0.098039 0.098039 0.258824
0.258824 0.098039 0.258824
0.678431 0.098039 0.258824
0.000000 0.258824 0.258824
0.031373 0.258824 0.258824
0.098039 0.258824 0.258824
0.258824 0.258824 0.258824
0.678431 0.258824 0.258824
0.000000 0.678431 0.258824
0.031373 0.678431 0.258824
0.098039 0.678431 0.258824
0.258824 0.678431 0.258824
0.678431 0.678431 0.258824
0.000000 0.000000 0.678431
0.031373 0.000000 0.678431
0.098039 0.000000 0.678431
0.258824 0.000000 0.678431
0.678431 0.000000 0.678431
0.000000 0.031373 0.678431
0.031373 0.031373 0.678431
0.098039 0.031373 0.678431
0.258824 0.031373 0.678431
0.678431 0.031373 0.678431
0.000000 0.098039 0.678431
0.031373 0.098039 0.678431
0.098039 0.098039 0.678431
0.258824 0.098039 0.678431
0.678431 0.098039 0.678431
0.000000 0.258824 0.678431
0.031373 0.258824 0.678431
0.098039 0.258824 0.678431
0.258824 0.258824 0.678431
0.678431 0.258824 0.678431
0.000000 0.678431 0.678431
0.031373 0.678431 0.678431
0.098039 0.678431 0.678431
0.258824 0.678431 0.678431
0.678431 0.678431 0.678431
